src/WeatherTwentyOne/Resources/Images/fluent_weather_partly_cloudy.svg

<svg width="31" height="24" viewBox="0 0 31 24" fill="none" xmlns="http://www.w3.org/2000/svg">
<path d="M16.9885 6.65101C21.6704 6.65101 24.3264 9.68401 24.7121 13.3476H24.8303C27.8432 13.3476 30.2857 15.7327 30.2857 18.6738C30.2857 21.6157 27.8432 24 24.8303 24H9.14525C6.1331 24 3.69057 21.6157 3.69057 18.6738C3.69057 15.7327 6.1331 13.3476 9.14599 13.3476H9.2642C9.65281 9.66015 12.3059 6.65101 16.9885 6.65101V6.65101ZM3.37436 12.576C3.53496 12.8484 3.58617 13.1696 3.51801 13.477C3.44986 13.7843 3.26722 14.0558 3.00569 14.2386L2.90078 14.3044L1.94106 14.8468C1.6534 15.0099 1.31259 15.0583 0.989435 14.9819C0.666276 14.9055 0.385594 14.7102 0.205686 14.4366C0.025777 14.1629 -0.0395317 13.832 0.0233234 13.5124C0.0861785 13.1929 0.272367 12.9093 0.543219 12.7206L0.64813 12.6548L1.60859 12.1124C1.90547 11.9447 2.25825 11.8992 2.58937 11.986C2.92049 12.0728 3.20284 12.2848 3.37436 12.5753V12.576ZM13.8183 5.6769C11.01 6.55917 9.0093 8.63468 8.18848 11.4052L8.11903 11.6511L8.03333 11.9953L7.72894 12.051C6.84423 12.2332 6.00508 12.5849 5.25982 13.0858C4.58005 11.9463 4.3252 10.6112 4.53872 9.30834C4.75224 8.00543 5.42091 6.81538 6.43069 5.94114C7.44048 5.0669 8.72883 4.56262 10.076 4.5143C11.4232 4.46598 12.7458 4.87661 13.8183 5.67617V5.6769ZM1.84944 5.19092L1.94697 5.2307L2.95176 5.68919C3.25604 5.82615 3.49416 6.07335 3.61596 6.37873C3.73777 6.6841 3.73376 7.02383 3.60478 7.32637C3.47581 7.62891 3.23193 7.87066 2.92449 8.00071C2.61706 8.13076 2.27006 8.13897 1.95657 8.0236L1.85905 7.9831L0.85426 7.52461C0.55231 7.38623 0.316644 7.13903 0.196469 6.83462C0.0762952 6.53021 0.0809041 6.19212 0.209333 5.89096C0.337763 5.58979 0.580084 5.34883 0.885698 5.21839C1.19131 5.08795 1.53659 5.07811 1.84944 5.19092V5.19092ZM15.9682 1.02398C16.2341 1.20611 16.4203 1.47945 16.4898 1.78972C16.5593 2.1 16.5071 2.42452 16.3435 2.69886L16.2859 2.78636L15.6505 3.67515C15.4598 3.94443 15.1698 4.13081 14.8415 4.19506C14.5132 4.25931 14.1723 4.19643 13.8904 4.01965C13.6086 3.84287 13.4078 3.56597 13.3302 3.2472C13.2527 2.92844 13.3045 2.59266 13.4747 2.31051L13.5323 2.22373L14.1677 1.33423C14.2651 1.198 14.3889 1.08189 14.5322 0.99253C14.6754 0.903171 14.8352 0.842313 15.0025 0.813435C15.1698 0.784557 15.3412 0.788224 15.5071 0.824226C15.6729 0.860229 15.8298 0.927862 15.9689 1.02326L15.9682 1.02398ZM8.36506 0.72025L8.41308 0.833065L8.79209 1.85274C8.9068 2.15848 8.89667 2.49574 8.76381 2.79436C8.63094 3.09297 8.38557 3.32995 8.07875 3.45599C7.77192 3.58203 7.42726 3.58742 7.11648 3.47105C6.80569 3.35468 6.5527 3.1255 6.41015 2.8312L6.36213 2.71838L5.98312 1.69871C5.86941 1.39316 5.88023 1.05649 6.01332 0.758544C6.14642 0.460594 6.39158 0.224226 6.69795 0.0984675C7.00432 -0.0272909 7.34839 -0.0327877 7.65879 0.0831171C7.96919 0.199022 8.2221 0.427433 8.36506 0.720973V0.72025Z" fill="url(#paint0_linear)"/>
<defs>
<linearGradient id="paint0_linear" x1="5.17171" y1="4.33905" x2="18.8663" y2="20.5388" gradientUnits="userSpaceOnUse">
<stop offset="0.10243" stop-color="#28C2D1"/>
<stop offset="0.925347" stop-color="#4931DE"/>
</linearGradient>
</defs>
</svg>

<svg width="31" height="24" fill="none" xmlns="http://www.w3.org/2000/svg">
    <path
        d="M16.988 6.651c4.682 0 7.338 3.033 7.724 6.697h.118c3.013 0 5.456 2.385 5.456 5.326 0 2.942-2.443 5.326-5.456 5.326H9.145c-3.012 0-5.454-2.384-5.454-5.326 0-2.941 2.442-5.326 5.455-5.326h.118c.389-3.688 3.042-6.697 7.724-6.697zM3.374 12.576c.161.272.212.594.144.901-.068.307-.25.579-.512.762l-.105.065-.96.543a1.317 1.317 0 01-.952.135 1.293 1.293 0 01-.783-.545 1.244 1.244 0 01-.183-.925c.063-.32.25-.603.52-.791l.105-.066.96-.543c.297-.167.65-.213.981-.126.331.087.614.299.785.59zm10.444-6.9c-2.808.883-4.809 2.959-5.63 5.73l-.069.245-.086.344-.304.056a6.934 6.934 0 00-2.47 1.035 5.599 5.599 0 01-.72-3.778A5.669 5.669 0 016.43 5.941a5.893 5.893 0 013.645-1.427 5.91 5.91 0 013.742 1.162zM1.85 5.192l.098.04 1.005.458c.304.137.542.384.664.69a1.24 1.24 0 01-.011.947 1.279 1.279 0 01-.68.675c-.308.13-.655.138-.968.023l-.098-.04-1.005-.46a1.277 1.277 0 01-.658-.69 1.24 1.24 0 01.013-.943c.129-.301.371-.542.677-.673.305-.13.65-.14.963-.027zm14.12-4.167c.265.182.451.455.52.766.07.31.018.635-.146.909l-.057.087-.636.89c-.19.268-.48.455-.809.52-.328.063-.669 0-.95-.176a1.267 1.267 0 01-.56-.773 1.243 1.243 0 01.144-.936l.057-.087.636-.89a1.28 1.28 0 01.835-.52 1.32 1.32 0 01.966.21zM8.364.72l.048.113.38 1.02a1.24 1.24 0 01-.03.941 1.28 1.28 0 01-.684.662 1.319 1.319 0 01-.963.015 1.283 1.283 0 01-.706-.64l-.048-.113-.379-1.02a1.24 1.24 0 01.03-.94 1.28 1.28 0 01.685-.66c.306-.125.65-.13.96-.015.311.116.564.344.707.638z"
        fill="url(#prefix__paint0_linear)" />
    <defs>
        <linearGradient id="prefix__paint0_linear" x1="5.172" y1="4.339" x2="18.866" y2="20.539"
            gradientUnits="userSpaceOnUse">
            <stop offset=".102" stop-color="#28C2D1" />
            <stop offset=".925" stop-color="#4931DE" />
        </linearGradient>
    </defs>
</svg>
